X: 1
T: Sleepy Maggie
T: 8x32R 3C (RSCDS Bk 11)
O: Trad
R: reel
C: from Matt Petrie, chords by T. Traub 11-29-2005
P: Sleepy Maggie
M: 4/4
L: 1/8
K: Bm
"F#"a |: "Bm"f2 Bb fBde | f2 Ba "A"eAce | "Bm"f2 Bb fBde | "D"f^gaf "A"eAce :|
|: "Bm"fBdB fBde | fBdB "A"eAce | "Bm"fBdB fBde | "D"f^gaf "A"eAce :|
|: "Bm"fB B/B/B fBbB|"Bm"fB B/B/B "A"eAce|"Bm"fB B/B/B fBaB|"D"f^gaf "A"eAce :|
|: "Bm"fB B/B/B bB B/B/B |aB B/B/B "A"eAce|"Bm"fBbB aB^gB|"D"f^gaf "A"eAce :|
